public/svg/delever1.svg

<svg width="163" height="98" viewBox="0 0 163 98" fill="none" xmlns="http://www.w3.org/2000/svg">
<path d="M146.857 0H16C7.16344 0 0 7.16344 0 16V81.7143C0 90.5509 7.16344 97.7143 16 97.7143H146.857C155.694 97.7143 162.857 90.5509 162.857 81.7143V16C162.857 7.16344 155.694 0 146.857 0Z" fill="#FF6D00"/>
<path d="M28.3631 41.457V55.7232H33.0667C35.4737 55.7232 37.152 54.6604 38.1015 52.5348C38.6204 51.3682 38.8799 49.9792 38.8799 48.3677C38.8799 46.1432 38.4907 44.4354 37.7123 43.244C36.9339 42.0527 35.3854 41.457 33.0667 41.457H28.3631ZM33.9279 37.6606C35.4406 37.6804 36.6993 37.8386 37.704 38.1352C39.4154 38.6394 40.8011 39.5638 41.861 40.9084C42.7112 41.9959 43.2909 43.1723 43.6 44.4378C43.9092 45.7033 44.0638 46.9094 44.0638 48.0563C44.0638 50.9629 43.4123 53.4246 42.1095 55.4415C40.3429 58.1603 37.6157 59.5196 33.9279 59.5196H23.4111V37.6606H33.9279ZM54.0815 46.4102C52.9884 46.4102 52.141 46.7166 51.5392 47.3296C50.9375 47.9426 50.5593 48.773 50.4048 49.821H57.7417C57.6644 48.7038 57.2862 47.8561 56.6072 47.2777C55.9281 46.6993 55.0863 46.4102 54.0815 46.4102ZM54.0815 42.9252C55.5831 42.9252 56.9356 43.1773 58.1391 43.6815C59.3427 44.1857 60.336 44.9816 61.12 46.0691C61.827 47.0281 62.285 48.1403 62.495 49.4058C62.616 50.1473 62.666 51.215 62.644 52.609H50.2888C50.3551 54.2304 50.9237 55.3673 51.9947 56.0198C52.6461 56.4252 53.4301 56.6278 54.3465 56.6278C55.3181 56.6278 56.1076 56.3807 56.7148 55.8864C57.0461 55.6194 57.3387 55.2487 57.5926 54.7741H62.412C62.291 55.7331 61.733 56.7069 60.739 57.6956C59.1936 59.2675 57.0295 60.0535 54.2471 60.0535C51.9505 60.0535 49.9245 59.3911 48.1689 58.0663C46.4133 56.7415 45.5356 54.5863 45.5356 51.6006C45.5356 48.8027 46.3278 46.6573 47.9122 45.1645C49.4966 43.6716 51.553 42.9252 54.0815 42.9252ZM70.078 59.5196H65.358V37.6606H70.078V59.5196ZM81.239 46.4102C80.145 46.4102 79.298 46.7166 78.696 47.3296C78.095 47.9426 77.716 48.773 77.562 49.821H84.899C84.821 48.7038 84.443 47.8561 83.764 47.2777C83.085 46.6993 82.243 46.4102 81.239 46.4102ZM81.239 42.9252C82.74 42.9252 84.093 43.1773 85.296 43.6815C86.5 44.1857 87.493 44.9816 88.277 46.0691C88.984 47.0281 89.442 48.1403 89.652 49.4058C89.773 50.1473 89.823 51.215 89.801 52.609H77.446C77.512 54.2304 78.081 55.3673 79.152 56.0198C79.803 56.4252 80.587 56.6278 81.504 56.6278C82.475 56.6278 83.265 56.3807 83.872 55.8864C84.203 55.6194 84.496 55.2487 84.75 54.7741H89.569C89.448 55.7331 88.89 56.7069 87.896 57.6956C86.351 59.2675 84.187 60.0535 81.404 60.0535C79.108 60.0535 77.082 59.3911 75.326 58.0663C73.57 56.7415 72.693 54.5863 72.693 51.6006C72.693 48.8027 73.485 46.6573 75.069 45.1645C76.654 43.6716 78.71 42.9252 81.239 42.9252ZM103.545 43.3553H108.613L102.104 59.5196H97.119L90.643 43.3553H95.943L99.703 55.2783L103.545 43.3553ZM117.836 46.4102C116.743 46.4102 115.895 46.7166 115.294 47.3296C114.692 47.9426 114.314 48.773 114.159 49.821H121.496C121.419 48.7038 121.041 47.8561 120.362 47.2777C119.682 46.6993 118.841 46.4102 117.836 46.4102ZM117.836 42.9252C119.337 42.9252 120.69 43.1773 121.893 43.6815C123.097 44.1857 124.091 44.9816 124.875 46.0691C125.581 47.0281 126.039 48.1403 126.249 49.4058C126.371 50.1473 126.42 51.215 126.398 52.609H114.043C114.109 54.2304 114.678 55.3673 115.749 56.0198C116.4 56.4252 117.184 56.6278 118.101 56.6278C119.072 56.6278 119.862 56.3807 120.469 55.8864C120.8 55.6194 121.093 55.2487 121.347 54.7741H126.166C126.045 55.7331 125.487 56.7069 124.494 57.6956C122.948 59.2675 120.784 60.0535 118.001 60.0535C115.705 60.0535 113.679 59.3911 111.923 58.0663C110.168 56.7415 109.29 54.5863 109.29 51.6006C109.29 48.8027 110.082 46.6573 111.667 45.1645C113.251 43.6716 115.307 42.9252 117.836 42.9252ZM138.817 42.9697C138.906 42.9697 138.98 42.9722 139.041 42.9771C139.102 42.982 139.237 42.9895 139.447 42.9993V47.3296C139.149 47.3 138.884 47.2802 138.652 47.2703C138.42 47.2604 138.232 47.2555 138.089 47.2555C136.19 47.2555 134.914 47.8091 134.263 48.9164C133.899 49.5392 133.716 50.4982 133.716 51.7934V59.5196H128.963V43.3553H133.468V46.1729C134.197 45.0953 134.832 44.3587 135.373 43.9633C136.256 43.3009 137.404 42.9697 138.817 42.9697Z" fill="white"/>
</svg>

<svg xmlns="http://www.w3.org/2000/svg" width="163" height="98" fill="none" xmlns:v="https://vecta.io/nano"><path d="M146.857 0H16C7.163 0 0 7.163 0 16v65.714c0 8.837 7.163 16 16 16h130.857c8.837 0 16-7.163 16-16V16c0-8.837-7.163-16-16-16z" fill="#ff6d00"/><path d="M28.363 41.457v14.266h4.704c2.407 0 4.085-1.063 5.035-3.188.519-1.167.778-2.556.778-4.167 0-2.224-.389-3.932-1.168-5.124s-2.327-1.787-4.646-1.787h-4.704zm5.565-3.796c1.513.02 2.771.178 3.776.475 1.711.504 3.097 1.429 4.157 2.773.85 1.087 1.43 2.264 1.739 3.529s.464 2.472.464 3.618c0 2.907-.651 5.368-1.954 7.385-1.767 2.719-4.494 4.078-8.182 4.078H23.411V37.661h10.517zm20.154 8.75c-1.093 0-1.94.306-2.542.919s-.98 1.443-1.134 2.491h7.337c-.077-1.117-.456-1.965-1.135-2.543s-1.521-.867-2.526-.867zm0-3.485c1.502 0 2.854.252 4.058.756s2.197 1.3 2.981 2.388c.707.959 1.165 2.071 1.375 3.337.121.742.171 1.809.149 3.203H50.289c.066 1.621.635 2.758 1.706 3.411.651.405 1.435.608 2.352.608.972 0 1.761-.247 2.368-.741.331-.267.624-.638.878-1.112h4.819c-.121.959-.679 1.933-1.673 2.922-1.545 1.572-3.709 2.358-6.492 2.358-2.297 0-4.323-.662-6.078-1.987s-2.633-3.48-2.633-6.466c0-2.798.792-4.943 2.377-6.436s3.641-2.239 6.169-2.239zM70.078 59.52h-4.72V37.661h4.72V59.52zM81.239 46.41c-1.094 0-1.941.306-2.543.919s-.98 1.443-1.134 2.491h7.337c-.078-1.117-.456-1.965-1.135-2.543s-1.521-.867-2.525-.867zm0-3.485c1.501 0 2.854.252 4.057.756s2.197 1.3 2.981 2.388c.707.959 1.165 2.071 1.375 3.337.121.742.171 1.809.149 3.203H77.446c.066 1.621.635 2.758 1.706 3.411.651.405 1.435.608 2.352.608.971 0 1.761-.247 2.368-.741.331-.267.624-.638.878-1.112h4.819c-.121.959-.679 1.933-1.673 2.922-1.545 1.572-3.709 2.358-6.492 2.358-2.296 0-4.322-.662-6.078-1.987s-2.633-3.48-2.633-6.466c0-2.798.792-4.943 2.376-6.436s3.641-2.239 6.17-2.239zm22.306.43h5.068l-6.509 16.164h-4.985l-6.476-16.164h5.3l3.76 11.923 3.842-11.923zm14.291 3.055c-1.093 0-1.941.306-2.542.919s-.98 1.443-1.135 2.491h7.337c-.077-1.117-.455-1.965-1.134-2.543s-1.521-.867-2.526-.867zm0-3.485c1.501 0 2.854.252 4.057.756a6.91 6.91 0 0 1 2.982 2.388c.706.959 1.164 2.071 1.374 3.337.122.742.171 1.809.149 3.203h-12.355c.066 1.621.635 2.758 1.706 3.411.651.405 1.435.608 2.352.608.971 0 1.761-.247 2.368-.741.331-.267.624-.638.878-1.112h4.819c-.121.959-.679 1.933-1.672 2.922-1.546 1.572-3.71 2.358-6.493 2.358-2.296 0-4.322-.662-6.078-1.987s-2.633-3.48-2.633-6.466c0-2.798.792-4.943 2.377-6.436s3.64-2.239 6.169-2.239zm20.981.045l.224.007.406.022v4.33l-.795-.059-.563-.015c-1.899 0-3.175.554-3.826 1.661-.364.623-.547 1.582-.547 2.877v7.726h-4.753V43.355h4.505v2.818c.729-1.078 1.364-1.814 1.905-2.21.883-.662 2.031-.994 3.444-.994z" fill="#fff"/></svg>
